X: 18766
T: If Ever You Were Mine
R: waltz
M: 3/4
K: Gmajor
DE|:"G" G4 e2|"Em" d4 (3BAG|"Am" AB G2 G2|"D" G4 DE|
"G" G4 e2|"Em" d4 Bd|"Bm" d6-|"D" d2 e2 f2|
"Em" g4 ed|"Bm" g4 ed|"C" e2 d3 B|"Am" AB G2 (3GFE|"G" D4 ed|
"Em" d4 (3BAG|"D" DE G2 GA|1 "G" G4 DE:|2 "G" G6||
|:"Bm" B3 d (3BAG|d4 (3Bcd|"C" c2 d2 e2|"G" d4 (3Bcd|
"Bm" B3 d(3BAG|d4 (3Bcd|"C" c2 d2 e2|"D" de fd ef|
"Em" g2 g2 ed|"Bm" g2 g2 ed|"C" e2 d3 B|"Am" AB G2 (3GFE|
"G" D4 ed|"Em" d4 (3BAG|"D" DE G2 GA|1 "G" G6:|2 "G" G4||

